!!! OTL: Literature141
!!! Chapter: 5
!!! Section: IV
!!! Page: 378
!!! Mode: 
!!! Encoder: DJB
**kern
*staff1
*I"Piano
=1-
*clefG2
*k[]
*a:
*M3/4
4r
4r
4ee\
=2
8.ff\L
16ee\Jk
4dd\
4ff\
=3
2ff\
4ee\
=4
24dd\LL
24ee\
24dd\J
8cc#\J
8dd\L
8dd#\J
8ee\L
8b\J
=5
2dd\
4cc\
=6
12a/L
12b/
12a/J
4g#/
4a/
=7
4b\
2ee\
=8
8b/L
8g/J
8e/L
8b/J
4d#/
=9
2e/
4ee\
=10
8.ff\L
16ee\Jk
4dd\
4ff\
=11
2ff\
4ee\
=12
!!linebreak:original
24dd\LL
24ee\
24dd\J
8cc#\J
8dd\L
8dd#\J
8ee\L
8b\J
=13
2dd\
4cc\
=14
12a/L
12b-/
12a/J
4g/
4a/
=15
4b-\
4dd\
4r
=16
8.a/L
16g#/Jk
4e/
4g#/
=17
2a/
4r
==
*-
